kinematics/images/quan6.svg

<svg xmlns="http://www.w3.org/2000/svg" width="201.6" height="97.8" style="width:201.60000610351562px;height:97.80000305175781px;background:0 0;fill:none"><svg xmlns="http://www.w3.org/2000/svg"/><svg xmlns="http://www.w3.org/2000/svg" class="role-diagram-draw-area" style="overflow:visible"><g class="shapes-region" style="stroke:#000;fill:none"><g class="arrow-line"><path stroke-dasharray="3" d="M4.06 49.67H164.8" class="connection real" style="stroke:#000;stroke-width:1;fill:none;fill-opacity:1"/></g><g class="composite-shape"><path d="M32.27 49.67c0-2.76 2.24-5 5-5s5 2.24 5 5-2.24 5-5 5-5-2.24-5-5Z" class="real" style="stroke-width:1;stroke:#900;stroke-opacity:1;fill:#900;fill-opacity:1"/></g><g class="arrow-line"><path d="M42.27 49.67h15.78" class="connection real" style="stroke:#900;stroke-opacity:1;stroke-width:1;fill:none;fill-opacity:1"/><path fill="#900" stroke="none" d="M10.72-5.15 0 0l10.72 5.15L7.12 0Z" style="stroke:none;fill:#900;stroke-width:1" transform="matrix(-1 0 0 -1 61.05 49.671)"/></g><g class="arrow-line"><path stroke-dasharray="3" d="M183.25 4.82v86.51" class="connection real" style="stroke:#000;stroke-width:1;fill:none;fill-opacity:1"/></g><g class="composite-shape"><path d="M183.25 4.82c2.77 0 5 2.24 5 5s-2.23 5-5 5c-2.76 0-5-2.24-5-5s2.24-5 5-5Z" class="real" style="stroke-width:1;stroke:#900;stroke-opacity:1;fill:#900;fill-opacity:1"/></g><g class="arrow-line"><path d="M183.25 14.82v25.63" class="connection real" style="stroke:#900;stroke-opacity:1;stroke-width:1;fill:none;fill-opacity:1"/><path fill="#900" stroke="none" d="M10.72-5.15 0 0l10.72 5.15L7.12 0Z" style="stroke:none;fill:#900;stroke-width:1" transform="rotate(-90 113.352 -69.902)"/></g></g></svg><svg xmlns="http://www.w3.org/2000/svg" xmlns:xlink="http://www.w3.org/1999/xlink" width="200" height="96.2" style="width:200px;height:96.20000457763672px;font-family:Asana-Math,Asana;background:0 0"/></svg>

<svg xmlns="http://www.w3.org/2000/svg" xmlns:xlink="http://www.w3.org/1999/xlink" x="0" y="0" width="201.60000610351562" height="97.80000305175781" style="
        width:201.60000610351562px;
        height:97.80000305175781px;
        background: transparent;
        fill: none;
">
        <svg xmlns="http://www.w3.org/2000/svg"/>
        
        <svg xmlns="http://www.w3.org/2000/svg" class="role-diagram-draw-area" style="overflow: visible;"><g class="shapes-region" style="stroke: black; fill: none;"><g class="arrow-line"><path class="connection real" stroke-dasharray="3" d="  M4.06,49.67 L164.8,49.67" style="stroke: rgb(0, 0, 0); stroke-width: 1; fill: none; fill-opacity: 1;"/></g><g class="composite-shape"><path class="real" d=" M32.27,49.67 C32.27,46.91 34.51,44.67 37.27,44.67 C40.03,44.67 42.27,46.91 42.27,49.67 C42.27,52.43 40.03,54.67 37.27,54.67 C34.51,54.67 32.27,52.43 32.27,49.67 Z" style="stroke-width: 1; stroke: rgb(153, 0, 0); stroke-opacity: 1; fill: rgb(153, 0, 0); fill-opacity: 1;"/></g><g class="arrow-line"><path class="connection real" stroke-dasharray="" d="  M42.27,49.67 L58.05,49.67" style="stroke: rgb(153, 0, 0); stroke-opacity: 1; stroke-width: 1; fill: none; fill-opacity: 1;"/><g stroke="none" fill="rgb(153,0,0)" fill-opacity="1" transform="matrix(-1,1.2246467991473532e-16,-1.2246467991473532e-16,-1,61.04999847412106,49.671428571428585)" style="stroke: none; fill: rgb(153, 0, 0); stroke-width: 1;"><path d=" M10.72,-5.15 L0,0 L10.72,5.15 L7.12,0 Z"/></g></g><g class="arrow-line"><path class="connection real" stroke-dasharray="3" d="  M183.25,4.82 L183.25,91.33" style="stroke: rgb(0, 0, 0); stroke-width: 1; fill: none; fill-opacity: 1;"/></g><g class="composite-shape"><path class="real" d=" M183.25,4.82 C186.02,4.82 188.25,7.06 188.25,9.82 C188.25,12.58 186.02,14.82 183.25,14.82 C180.49,14.82 178.25,12.58 178.25,9.82 C178.25,7.06 180.49,4.82 183.25,4.82 Z" style="stroke-width: 1; stroke: rgb(153, 0, 0); stroke-opacity: 1; fill: rgb(153, 0, 0); fill-opacity: 1;"/></g><g class="arrow-line"><path class="connection real" stroke-dasharray="" d="  M183.25,14.82 L183.25,40.45" style="stroke: rgb(153, 0, 0); stroke-opacity: 1; stroke-width: 1; fill: none; fill-opacity: 1;"/><g stroke="none" fill="rgb(153,0,0)" fill-opacity="1" transform="matrix(-1.8369701987210297e-16,-1,1,-1.8369701987210297e-16,183.2547585986909,43.44999694824219)" style="stroke: none; fill: rgb(153, 0, 0); stroke-width: 1;"><path d=" M10.72,-5.15 L0,0 L10.72,5.15 L7.12,0 Z"/></g></g><g/></g><g/><g/><g/></svg>
        <svg xmlns="http://www.w3.org/2000/svg" xmlns:xlink="http://www.w3.org/1999/xlink" width="200" height="96.20000457763672" style="width:200px;height:96.20000457763672px;font-family:Asana-Math, Asana;background:transparent;"></svg>
</svg>
